images_sukapura_svg/cmd/lc_splittable.svg

<svg viewBox="0 0 24 24" xmlns="http://www.w3.org/2000/svg" xmlns:xlink="http://www.w3.org/1999/xlink"><linearGradient id="a" gradientUnits="userSpaceOnUse" x1="12" x2="12" xlink:href="#c" y1="18" y2="9"/><filter id="b" color-interpolation-filters="sRGB" height="1.094553" width="1.097492" x="-.048746" y="-.047277"><feGaussianBlur stdDeviation=".36559322"/></filter><linearGradient id="c"><stop offset="0" stop-color="#c20618"/><stop offset="1" stop-color="#ff6961" stop-opacity=".966805"/></linearGradient><linearGradient id="d" gradientUnits="userSpaceOnUse" x1="1.991732" x2="10" xlink:href="#c" y1="13.491733" y2="13.416016"/><linearGradient id="e" gradientUnits="userSpaceOnUse" x1="10" x2="2.008207" xlink:href="#c" y1="13.416016" y2="13.491733"/><path d="m3 4v6h18v-6zm0 13v5.558594h18v-5.558594z" filter="url(#b)" opacity=".15" stroke-width="1.015418"/><path d="m3 3v7h18v-7zm0 11v7h18v-7z" fill="#fff"/><path d="m8 3v2h-5v1h5v3h-2.4238281-.1367188-1.9082031-.53125v.5.5h18v-.5-.5h-.53125-1.900391-.136718-2.431641v-3h5v-1h-5v-2h-1v2h-6v-2zm1 3h6v3h-6zm-1 8v3h-5v.5.5h.53125 1.9335938.1660156 2.3691406v3h1v-3h6v3h1v-3h2.376953.166016 1.925781.53125v-.5-.5h-5v-3h-1v3h-6v-3z" fill="#bababa"/><path d="m2 2v1 3 4h1v-1-3-1-2h5 1 6 1 5v2 1 3 1h1v-1-3-3-1h-1-18zm0 11v8c0 .554.446 1 1 1h18c.554 0 1-.446 1-1v-7-1h-1v1 7h-5-1-6-1-5v-7-1z" fill="#69696e"/><path d="m3 9v1h3 1 4 1 5 1 3v-1zm0 4v1h18v-1h-3-1-5-1-4-1z" fill="url(#a)"/><g fill="#4d82b8" fill-rule="evenodd" transform="matrix(0 1 -1 0 25.991733 1.991793)"><g transform="translate(-1)"><path d="m12.527344 1.9941406c-.465068-.007241-.927541.2171189-1.210938.5859375l.085938-.0996093-2.9453128 2.9414062c-.472521.4513168-.5944219 1.2292479-.28125 1.8027344.3018093.5526806.9802833.8574445 1.5976563.7421875l-.1640625.0195312h.0332031l-.0332031.0039063h.3847656v2.4707036c0 .877451.7634804 1.529296 1.5761714 1.529296h.84375l-.162109-.013672c.160494.026364.325833.026365.486328 0l-.162109.013672h.83789c.812691 0 1.576172-.651845 1.576172-1.529296v-2.4707036h.417969l-.044922-.0039063h.044922l-.056641-.0039062c.814865.0688089 1.633476-.6328762 1.646485-1.4589844.005922-.3996811-.154927-.7993079-.4375-1.0820313l-2.947266-2.9511718.095703.1132812c-.272649-.3695737-.722434-.6021518-1.18164-.609375z" fill="#fafafa" fill-opacity=".784314" transform="matrix(0 -1 1 0 -.991793 25.991733)"/><path d="m5.515625 9.9921875a.50063809.50063809 0 0 0 -.3613281.1464845l-2.9511719 2.947266a.50005.50005 0 0 0 -.203125.394531.50005.50005 0 0 0 .1953125.404297l2.9570313 2.960937a.50005.50005 0 0 0 .8476562-.462891v-1.382812h3.46875c.2943125 0 .53125-.257844.53125-.578125v-.84375a.50005.50005 0 0 0 0-.162109v-.837891c0-.320281-.2369375-.578125-.53125-.578125h-3.46875v-1.416016a.50063809.50063809 0 0 0 -.484375-.5917965z" fill="url(#e)"/></g><g transform="matrix(-1 0 0 1 21.999939 0)"><path d="m11.570312 12.998047c-.637179 0-1.238173.405113-1.46875 1.001953h4.779297c-.230576-.59684-.829617-1.001953-1.466797-1.001953h-.83789l.162109.013672c-.160062-.02629-.326267-.02629-.486328 0l.162109-.013672zm-2.2324214 4.001953c-.4758052.057755-.927539.339321-1.1582031.761719-.312326.571939-.1919491 1.346776.2792969 1.796875l2.4374996 2.433594h3.212891l2.447266-2.451172c.281811-.281961.443406-.681475.4375-1.080078-.011753-.746387-.683532-1.395923-1.414063-1.460938h-.128906c-.074801.000573-.149952-.000163-.22461.013672l.158204-.013672h-5.7578129l.2167969.025391c-.1289795-.031183-.2626548-.031413-.3945312-.025391z" fill="#fff" fill-opacity=".784314" transform="matrix(0 -1 -1 0 23.991732 25.991733)"/><path d="m5.515625 9.9921875a.50063809.50063809 0 0 0 -.3613281.1464845l-2.9511719 2.947266a.50005.50005 0 0 0 -.203125.394531.50005.50005 0 0 0 .1953125.404297l2.9570313 2.960937a.50005.50005 0 0 0 .8476562-.462891v-1.382812h3.46875c.2943125 0 .53125-.257844.53125-.578125v-.84375a.50005.50005 0 0 0 0-.162109v-.837891c0-.320281-.2369375-.578125-.53125-.578125h-3.46875v-1.416016a.50063809.50063809 0 0 0 -.484375-.5917965z" fill="url(#d)"/></g></g></svg>

<?xml version="1.0" encoding="UTF-8" standalone="no"?>
<svg
   xmlns:dc="http://purl.org/dc/elements/1.1/"
   xmlns:cc="http://creativecommons.org/ns#"
   xmlns:rdf="http://www.w3.org/1999/02/22-rdf-syntax-ns#"
   xmlns:svg="http://www.w3.org/2000/svg"
   xmlns="http://www.w3.org/2000/svg"
   xmlns:xlink="http://www.w3.org/1999/xlink"
   xmlns:sodipodi="http://sodipodi.sourceforge.net/DTD/sodipodi-0.dtd"
   xmlns:inkscape="http://www.inkscape.org/namespaces/inkscape"
   viewBox="0 0 24 24"
   version="1.1"
   id="svg14"
   sodipodi:docname="lc_splittable.svg"
   inkscape:export-filename="/home/rizmut/Documents/Rizmut/Github/libreoffice-style-sukapura/images_sukapura/cmd/lc_splittable.png"
   inkscape:export-xdpi="96"
   inkscape:export-ydpi="96"
   inkscape:version="0.92.3 (2405546, 2018-03-11)">
  <metadata
     id="metadata20">
    <rdf:RDF>
      <cc:Work
         rdf:about="">
        <dc:format>image/svg+xml</dc:format>
        <dc:type
           rdf:resource="http://purl.org/dc/dcmitype/StillImage" />
        <dc:title></dc:title>
      </cc:Work>
    </rdf:RDF>
  </metadata>
  <defs
     id="defs18">
    <filter
       style="color-interpolation-filters:sRGB"
       id="b"
       height="1.094553"
       width="1.097492"
       x="-0.048746001"
       y="-0.047277">
      <feGaussianBlur
         stdDeviation=".36559322"
         id="feGaussianBlur957" />
    </filter>
    <linearGradient
       gradientTransform="translate(-41,-2)"
       id="a"
       gradientUnits="userSpaceOnUse"
       x1="12"
       x2="12"
       y1="3"
       y2="21">
      <stop
         offset="0"
         stop-color="#efefef"
         id="stop948" />
      <stop
         offset=".33333334"
         stop-color="#fff"
         id="stop950" />
      <stop
         offset=".8888889"
         stop-color="#fff"
         id="stop952" />
      <stop
         offset="1"
         stop-color="#f5f5f5"
         id="stop954" />
    </linearGradient>
    <linearGradient
       gradientTransform="translate(32,-5)"
       id="a-3"
       gradientUnits="userSpaceOnUse"
       x1="14"
       x2="13.79661"
       y1="22"
       y2="2.1355929">
      <stop
         offset="0"
         stop-color="#0040dd"
         id="stop1604" />
      <stop
         offset="1"
         stop-color="#0a84ff"
         id="stop1606" />
    </linearGradient>
    <linearGradient
       inkscape:collect="always"
       xlink:href="#linearGradient1846"
       id="linearGradient2231"
       x1="12"
       y1="18"
       x2="12"
       y2="9"
       gradientUnits="userSpaceOnUse" />
    <filter
       style="color-interpolation-filters:sRGB"
       id="b-6"
       height="1.094553"
       width="1.097492"
       x="-0.048746001"
       y="-0.047277">
      <feGaussianBlur
         stdDeviation=".36559322"
         id="feGaussianBlur957-7" />
    </filter>
    <linearGradient
       inkscape:collect="always"
       id="linearGradient1846">
      <stop
         style="stop-color:#c20618;stop-opacity:1"
         offset="0"
         id="stop1842" />
      <stop
         style="stop-color:#ff6961;stop-opacity:0.96680498"
         offset="1"
         id="stop1844" />
    </linearGradient>
    <linearGradient
       inkscape:collect="always"
       xlink:href="#linearGradient1846"
       id="linearGradient2192"
       x1="1.991732"
       y1="13.491733"
       x2="10"
       y2="13.416016"
       gradientUnits="userSpaceOnUse" />
    <linearGradient
       inkscape:collect="always"
       xlink:href="#linearGradient1846"
       id="linearGradient922"
       gradientUnits="userSpaceOnUse"
       x1="10"
       y1="13.416016"
       x2="2.0082071"
       y2="13.491733" />
  </defs>
  <sodipodi:namedview
     pagecolor="#ffffff"
     bordercolor="#666666"
     borderopacity="1"
     objecttolerance="10"
     gridtolerance="10"
     guidetolerance="10"
     inkscape:pageopacity="0"
     inkscape:pageshadow="2"
     inkscape:window-width="1366"
     inkscape:window-height="685"
     id="namedview16"
     showgrid="true"
     inkscape:zoom="22.627417"
     inkscape:cx="12.047748"
     inkscape:cy="12.958194"
     inkscape:window-x="0"
     inkscape:window-y="0"
     inkscape:window-maximized="1"
     inkscape:current-layer="g2204"
     inkscape:snap-global="false">
    <inkscape:grid
       type="xygrid"
       id="grid827"
       spacingx="0.5"
       spacingy="0.5"
       empspacing="2" />
  </sodipodi:namedview>
  <path
     style="opacity:0.15;stroke-width:1.01541805;filter:url(#b-6)"
     d="M 3 4 L 3 10 L 21 10 L 21 4 L 3 4 z M 3 17 L 3 22.558594 L 21 22.558594 L 21 17 L 3 17 z "
     id="path960" />
  <path
     style="fill:#ffffff"
     d="m 3,3 v 7 H 21 V 3 Z m 0,11 v 7 h 18 v -7 z"
     id="path2"
     inkscape:connector-curvature="0"
     sodipodi:nodetypes="cccccccccc" />
  <path
     style="fill:#bababa;fill-opacity:1"
     d="M 8 3 L 8 5 L 3 5 L 3 6 L 8 6 L 8 9 L 5.5761719 9 L 5.4394531 9 L 3.53125 9 L 3 9 L 3 9.5 L 3 10 L 21 10 L 21 9.5 L 21 9 L 20.46875 9 L 18.568359 9 L 18.431641 9 L 16 9 L 16 6 L 21 6 L 21 5 L 16 5 L 16 3 L 15 3 L 15 5 L 9 5 L 9 3 L 8 3 z M 9 6 L 15 6 L 15 9 L 9 9 L 9 6 z M 8 14 L 8 17 L 3 17 L 3 17.5 L 3 18 L 3.53125 18 L 5.4648438 18 L 5.6308594 18 L 8 18 L 8 21 L 9 21 L 9 18 L 15 18 L 15 21 L 16 21 L 16 18 L 18.376953 18 L 18.542969 18 L 20.46875 18 L 21 18 L 21 17.5 L 21 17 L 16 17 L 16 14 L 15 14 L 15 17 L 9 17 L 9 14 L 8 14 z "
     id="path4" />
  <path
     style="fill:#69696e;fill-opacity:1"
     d="m 2,2 v 1 3 4 H 3 V 9 6 5 3 h 5 1 6 1 5 v 2 1 3 1 h 1 V 9 6 3 2 H 21 3 Z m 0,11 v 8 c 0,0.554 0.446,1 1,1 h 18 c 0.554,0 1,-0.446 1,-1 v -7 -1 h -1 v 1 7 H 16 15 9 8 3 v -7 -1 z"
     id="path6"
     inkscape:connector-curvature="0"
     sodipodi:nodetypes="cccccccccccccccccccccccccccssssccccccccccccc" />
  <path
     style="opacity:1;fill:url(#linearGradient2231);fill-opacity:1;stroke:none;stroke-width:1;stroke-linecap:round;stroke-linejoin:round;stroke-miterlimit:4;stroke-dasharray:none;stroke-opacity:0"
     d="m 3,9 v 1 h 3 1 4 1 5 1 3 V 9 Z m 0,4 v 1 H 21 V 13 H 18 17 12 11 7 6 Z"
     id="rect2220"
     inkscape:connector-curvature="0"
     sodipodi:nodetypes="cccccccccccccccccccccc" />
  <g
     style="fill:#4d82b8;fill-rule:evenodd"
     id="g12"
     transform="rotate(90,11.99997,13.991763)">
    <g
       id="g2204"
       transform="translate(-1)">
      <path
         style="fill:#fafafa;fill-opacity:0.78431374"
         d="M 12.527344 1.9941406 C 12.062276 1.9868996 11.599803 2.2112595 11.316406 2.5800781 L 11.402344 2.4804688 L 8.4570312 5.421875 C 7.9845102 5.8731918 7.8626093 6.6511229 8.1757812 7.2246094 C 8.4775905 7.77729 9.1560645 8.0820539 9.7734375 7.9667969 L 9.609375 7.9863281 L 9.6425781 7.9863281 L 9.609375 7.9902344 L 9.9941406 7.9902344 L 9.9941406 10.460938 C 9.9941406 11.338389 10.757621 11.990234 11.570312 11.990234 L 12.414062 11.990234 L 12.251953 11.976562 C 12.412447 12.002926 12.577786 12.002927 12.738281 11.976562 L 12.576172 11.990234 L 13.414062 11.990234 C 14.226753 11.990234 14.990234 11.338389 14.990234 10.460938 L 14.990234 7.9902344 L 15.408203 7.9902344 L 15.363281 7.9863281 L 15.408203 7.9863281 L 15.351562 7.9824219 C 16.166427 8.0512308 16.985038 7.3495457 16.998047 6.5234375 C 17.003969 6.1237564 16.84312 5.7241296 16.560547 5.4414062 L 13.613281 2.4902344 L 13.708984 2.6035156 C 13.436335 2.2339419 12.98655 2.0013638 12.527344 1.9941406 z "
         transform="rotate(-90,12.49997,13.491763)"
         id="path957" />
      <path
         inkscape:connector-curvature="0"
         style="fill:url(#linearGradient922);fill-opacity:1"
         id="path10"
         d="M 5.515625,9.9921875 A 0.50063809,0.50063809 0 0 0 5.1542969,10.138672 L 2.203125,13.085938 A 0.50005,0.50005 0 0 0 2,13.480469 0.50005,0.50005 0 0 0 2.1953125,13.884766 l 2.9570313,2.960937 A 0.50005,0.50005 0 0 0 6,16.382812 V 15 H 9.46875 C 9.7630625,15 10,14.742156 10,14.421875 v -0.84375 a 0.50005,0.50005 0 0 0 0,-0.162109 V 12.578125 C 10,12.257844 9.7630625,12 9.46875,12 H 6 V 10.583984 A 0.50063809,0.50063809 0 0 0 5.515625,9.9921875 Z" />
    </g>
    <g
       id="g2210"
       transform="matrix(-1,0,0,1,21.999939,0)">
      <path
         style="fill:#ffffff;fill-opacity:0.78431373"
         d="M 11.570312 12.998047 C 10.933133 12.998047 10.332139 13.40316 10.101562 14 L 14.880859 14 C 14.650283 13.40316 14.051242 12.998047 13.414062 12.998047 L 12.576172 12.998047 L 12.738281 13.011719 C 12.578219 12.985429 12.412014 12.985429 12.251953 13.011719 L 12.414062 12.998047 L 11.570312 12.998047 z M 9.3378906 17 C 8.8620854 17.057755 8.4103516 17.339321 8.1796875 17.761719 C 7.8673615 18.333658 7.9877384 19.108495 8.4589844 19.558594 L 10.896484 21.992188 L 14.109375 21.992188 L 16.556641 19.541016 C 16.838452 19.259055 17.000047 18.859541 16.994141 18.460938 C 16.982388 17.714551 16.310609 17.065015 15.580078 17 L 15.451172 17 C 15.376371 17.000573 15.30122 16.999837 15.226562 17.013672 L 15.384766 17 L 9.6269531 17 L 9.84375 17.025391 C 9.7147705 16.994208 9.5810952 16.993978 9.4492188 17 L 9.3378906 17 z "
         transform="matrix(0,-1,-1,0,23.991732,25.991733)"
         id="path2206" />
      <path
         d="M 5.515625,9.9921875 A 0.50063809,0.50063809 0 0 0 5.1542969,10.138672 L 2.203125,13.085938 A 0.50005,0.50005 0 0 0 2,13.480469 0.50005,0.50005 0 0 0 2.1953125,13.884766 l 2.9570313,2.960937 A 0.50005,0.50005 0 0 0 6,16.382812 V 15 H 9.46875 C 9.7630625,15 10,14.742156 10,14.421875 v -0.84375 a 0.50005,0.50005 0 0 0 0,-0.162109 V 12.578125 C 10,12.257844 9.7630625,12 9.46875,12 H 6 V 10.583984 A 0.50063809,0.50063809 0 0 0 5.515625,9.9921875 Z"
         id="path2208"
         style="fill:url(#linearGradient2192);fill-opacity:1.0"
         inkscape:connector-curvature="0" />
    </g>
  </g>
</svg>
